X: 41604
T: Up Downey
R: reel
M: 4/4
K: Eminor
B|EFGA B2dB|BAGB AGFB|EFGA Bdef|gfed eaz2|
EFGA ~B3d|BAGB AGFB|EFGA Bded|BAGB E3:|
|:e|gfeg fegf|egfe a3b|gfeg fegf|egfe B3e|
gfeg fegf|egfe a3g|ba (3gab agfB|egfd e3:|

